packages/admin/admin-icons/icons/rte-ol.svg

<svg width="16" height="16" viewBox="0 0 16 16" fill="none" xmlns="http://www.w3.org/2000/svg">
<path fill-rule="evenodd" clip-rule="evenodd" d="M0 12.0858H1.68421V12.4929H0.842105V13.3072H1.68421V13.7143H0V14.5286H2.52632V11.2715H0V12.0858ZM0.842105 4.75716H1.68421V1.5H0V2.31429H0.842105V4.75716ZM0 7.20002H1.51579L0 8.91003V9.64289H2.52632V8.8286H1.01053L2.52632 7.11859V6.38573H0V7.20002ZM4.21053 2.31429V3.94287H16V2.31429H4.21053ZM4.21053 13.7143H16V12.0858H4.21053V13.7143ZM4.21053 8.8286H16V7.20002H4.21053V8.8286Z" fill="#242424"/>
</svg>

<svg width="16" height="16" fill="none" viewBox="0 0 16 16">
  <path fill="#242424" fill-rule="evenodd" d="M0 12.072h1.684v.408H.842v.814h.842v.407H0v.814h2.526v-3.257H0v.814Zm.842-7.328h.842V1.487H0V2.3h.842v2.443ZM0 7.187h1.516L0 8.897v.732h2.526v-.814H1.011l1.515-1.71v-.733H0v.815ZM4.21 2.3v1.628H16V2.301H4.21Zm0 11.4H16v-1.629H4.21V13.7Zm0-4.886H16V7.187H4.21v1.628Z" clip-rule="evenodd"/>
</svg>
